Origami/16x16/apps/freefilesync.svg

<svg width="16" height="16" version="1" xmlns="http://www.w3.org/2000/svg">
 <path d="M 8,1 C 4.8307517,1 2.2366063,3.1888297 1.3867188,6.0976562 0.22128811,6.4734904 -0.33589288,7.7988777 0.2109375,8.8945312 l 1.5,2.9999998 c 0.4543337,0.905471 1.5138958,1.32829 2.4667969,0.984375 0.1955786,0.725124 0.6040404,1.372781 1.3320312,1.679688 0.045905,0.01928 0.073496,0.02766 0.1113282,0.04101 C 6.4473843,14.848497 7,15 8,15 c 3.169248,0 5.763394,-2.18883 6.613281,-5.0976562 1.165431,-0.3758344 1.722611,-1.7012216 1.175781,-2.796875 l -1.5,-3 C 13.834728,3.1999978 12.775167,2.7771797 11.822266,3.1210938 11.626698,2.395977 11.218227,1.7483262 10.490234,1.4414062 10.44433,1.4221285 10.416738,1.4137468 10.378906,1.4003906 9.5523442,1.1528468 9,1 8,1 Z" style="fill:#6eb139"/>
 <path d="m8 3c-2.7614 0-5 2.2386-5 5h-2l2.5 3 2.5-3h-2c0-2.2091 1.7909-4 4-4v2e-3c0.52534-6.2e-4 0.84533 0.00218 1.33083 0.202665 0.25511 0.10495 0.54701-0.0165 0.65234-0.27149 0.10517-0.25457-0.0153-0.54625-0.26953-0.65234-0.0178-8e-3 -0.0361-0.0141-0.0547-0.0195-0.59124-0.23723-1.02203-0.259135-1.65903-0.259385zm4.5 2-2.5 3h2c0 2.2091-1.7909 4-4 4v-2e-3c-0.52535 6.2e-4 -0.845325-0.0022-1.330825-0.202665-0.25511-0.10495-0.54702 0.0165-0.65235 0.27149-0.10517 0.25457 0.0153 0.54625 0.26954 0.65234 0.0178 8e-3 0.0361 0.0141 0.0547 0.0195 0.59123 0.23715 1.021925 0.259055 1.659025 0.259305v2e-3c2.7614 0 5-2.2386 5-5h1.99991z" style="fill:#ffffff"/>
</svg>

<svg xmlns="http://www.w3.org/2000/svg" width="16" height="16" version="1">
 <path style="fill:#6eb139" d="M 8,1 C 4.8307517,1 2.2366063,3.1888297 1.3867188,6.0976562 0.22128811,6.4734904 -0.33589288,7.7988777 0.2109375,8.8945312 l 1.5,2.9999998 c 0.4543337,0.905471 1.5138958,1.32829 2.4667969,0.984375 0.1955786,0.725124 0.6040404,1.372781 1.3320312,1.679688 0.045905,0.01928 0.073496,0.02766 0.1113282,0.04101 C 6.4473843,14.848497 7,15 8,15 c 3.169248,0 5.763394,-2.18883 6.613281,-5.0976562 1.165431,-0.3758344 1.722611,-1.7012216 1.175781,-2.796875 l -1.5,-3 C 13.834728,3.1999978 12.775167,2.7771797 11.822266,3.1210938 11.626698,2.395977 11.218227,1.7483262 10.490234,1.4414062 10.44433,1.4221285 10.416738,1.4137468 10.378906,1.4003906 9.5523442,1.1528468 9,1 8,1 Z"/>
 <path style="fill:#ffffff" d="M 8,3 C 5.2386,3 3,5.2386 3,8 H 1 L 3.5,11 6,8 H 4 C 4,5.7909 5.7909,4 8,4 v 0.002 c 0.52534,-6.2e-4 0.84533,0.00218 1.33083,0.202665 0.25511,0.10495 0.54701,-0.0165 0.65234,-0.27149 0.10517,-0.25457 -0.0153,-0.54625 -0.26953,-0.65234 -0.0178,-0.008 -0.0361,-0.0141 -0.0547,-0.0195 C 9.0677,3.024105 8.63691,3.0022 7.99991,3.00195 Z M 12.5,5 10,8 h 2 c 0,2.2091 -1.7909,4 -4,4 v -0.002 c -0.52535,6.2e-4 -0.845325,-0.0022 -1.330825,-0.202665 -0.25511,-0.10495 -0.54702,0.0165 -0.65235,0.27149 -0.10517,0.25457 0.0153,0.54625 0.26954,0.65234 0.0178,0.008 0.0361,0.0141 0.0547,0.0195 0.59123,0.23715 1.021925,0.259055 1.659025,0.259305 v 0.002 c 2.7614,0 5,-2.2386 5,-5 H 15 Z"/>
</svg>
